public/images/icons/cog.svg

<svg width="20" height="20" viewBox="0 0 20 20" xmlns="http://www.w3.org/2000/svg">
  <path d="M10 6.25C7.92893 6.25 6.25 7.92893 6.25 10C6.25 12.0711 7.92893 13.75 10 13.75C12.0711 13.75 13.75 12.0711 13.75 10C13.75 7.92893 12.0711 6.25 10 6.25ZM7.75 10C7.75 8.75736 8.75736 7.75 10 7.75C11.2426 7.75 12.25 8.75736 12.25 10C12.25 11.2426 11.2426 12.25 10 12.25C8.75736 12.25 7.75 11.2426 7.75 10Z"/>
  <path d="M10.0034 17.8866C9.88896 17.8866 9.77581 17.9106 9.67125 17.9571C9.56669 18.0036 9.47303 18.0715 9.39633 18.1564L9.39499 18.1579L8.63865 18.9912C8.31778 19.344 7.89539 19.5898 7.43008 19.694C6.96476 19.7982 6.47863 19.7564 6.03796 19.5742C5.5973 19.392 5.22355 19.0783 4.96766 18.676C4.71178 18.2736 4.5862 17.8021 4.60803 17.3257L4.60823 17.3216L4.66586 16.2009C4.67174 16.0866 4.65356 15.9724 4.61251 15.8656C4.57146 15.7588 4.50845 15.6618 4.42757 15.5809C4.34669 15.5 4.24973 15.437 4.14298 15.3959C4.03623 15.3549 3.92206 15.3367 3.80785 15.3426L2.6879 15.3994C2.21015 15.4243 1.7363 15.3008 1.33159 15.0456C0.926857 14.7905 0.611021 14.4164 0.427427 13.9745C0.243834 13.5327 0.201476 13.0449 0.306163 12.5781C0.410851 12.1113 0.657457 11.6883 1.01215 11.3672L1.8459 10.6142C1.93089 10.5374 1.99883 10.4437 2.04534 10.339C2.09184 10.2343 2.11587 10.121 2.11587 10.0064C2.11587 9.89185 2.09184 9.77856 2.04534 9.67387C1.99883 9.56918 1.93089 9.47542 1.8459 9.39864L1.84452 9.39739L1.01154 8.64112C0.658113 8.3204 0.41213 7.89818 0.307568 7.43251C0.202986 6.96676 0.244775 6.48006 0.427226 6.03896C0.609677 5.59785 0.923894 5.22384 1.32694 4.96807C1.72999 4.7123 2.2022 4.58726 2.67901 4.61005L2.68119 4.61016L3.8031 4.66707C3.91752 4.67308 4.03193 4.65496 4.13891 4.61387C4.24588 4.57278 4.34302 4.50965 4.42402 4.42855C4.50502 4.34746 4.56807 4.25023 4.60906 4.14317C4.65005 4.03611 4.66807 3.92161 4.66194 3.80713L4.66171 3.80285L4.6081 2.68137C4.58574 2.20482 4.71092 1.7323 4.96661 1.32954C5.2223 0.926772 5.59602 0.612702 6.03681 0.430201C6.47759 0.247699 6.96395 0.205663 7.42951 0.309834C7.89507 0.414004 8.31714 0.659301 8.63813 1.01223L8.63925 1.01347L9.3929 1.84582C9.46945 1.93081 9.563 1.99875 9.66747 2.04526C9.77195 2.09176 9.88502 2.11579 9.99937 2.11579H10.004C10.1183 2.11579 10.2314 2.09176 10.3359 2.04526C10.4404 1.99875 10.5339 1.93081 10.6105 1.84582L11.3641 1.01347L11.3652 1.01223C11.6862 0.659301 12.1083 0.414004 12.5739 0.309834C13.0394 0.205663 13.5258 0.247699 13.9666 0.430201C14.4073 0.612702 14.7811 0.926772 15.0368 1.32954C15.2925 1.7323 15.4176 2.20482 15.3953 2.68137L15.3417 3.80285L15.3414 3.80713C15.3353 3.92161 15.3533 4.03611 15.3943 4.14317C15.4353 4.25023 15.4983 4.34746 15.5793 4.42855C15.6603 4.50965 15.7575 4.57278 15.8645 4.61387C15.9714 4.65496 16.0858 4.67308 16.2003 4.66707L17.3222 4.61016L17.3244 4.61005C17.8012 4.58726 18.2734 4.7123 18.6764 4.96807C19.0795 5.22384 19.3937 5.59785 19.5761 6.03896C19.7586 6.48006 19.8004 6.96676 19.6958 7.43251C19.5912 7.89818 19.3453 8.3204 18.9918 8.64112L18.1589 9.39739L18.1575 9.39864C18.0725 9.47542 18.0045 9.56918 17.958 9.67387C17.9115 9.77856 17.8875 9.89185 17.8875 10.0064C17.8875 10.121 17.9115 10.2343 17.958 10.339C18.0045 10.4437 18.0725 10.5374 18.1575 10.6142L18.9912 11.3672C19.3459 11.6883 19.5925 12.1113 19.6972 12.5781C19.8019 13.0449 19.7595 13.5327 19.5759 13.9745C19.3923 14.4164 19.0765 14.7905 18.6718 15.0456C18.2671 15.3008 17.7932 15.4243 17.3155 15.3994L16.1955 15.3426C16.0813 15.3367 15.9671 15.3549 15.8604 15.3959C15.7536 15.437 15.6567 15.5 15.5758 15.5809C15.4949 15.6618 15.4319 15.7588 15.3909 15.8656C15.3498 15.9724 15.3316 16.0866 15.3375 16.2009L15.3951 17.3216L15.3953 17.3257C15.4172 17.8021 15.2916 18.2736 15.0357 18.676C14.7798 19.0783 14.4061 19.392 13.9654 19.5742C13.5247 19.7564 13.0386 19.7982 12.5733 19.694C12.108 19.5898 11.6856 19.344 11.3647 18.9912L10.6084 18.1579L10.607 18.1564C10.5303 18.0715 10.4367 18.0036 10.3321 17.9571C10.2276 17.9106 10.1144 17.8866 10 17.8866H10.0034ZM9.99937 3.61579C9.67484 3.61579 9.35394 3.54759 9.05747 3.41562C8.76135 3.28381 8.4962 3.09131 8.27916 2.85059L8.27837 2.84972L7.52845 2.02149C7.41523 1.89721 7.26601 1.81034 7.10198 1.77364C6.93773 1.73689 6.76614 1.75172 6.61062 1.81611C6.4551 1.8805 6.32322 1.99132 6.23297 2.13347C6.14281 2.2755 6.09861 2.44189 6.1064 2.60996L6.15992 3.72932C6.17692 4.05304 6.12581 4.37675 6.00989 4.67951C5.89369 4.98302 5.71495 5.25869 5.48528 5.48862C5.2556 5.71855 4.98013 5.8976 4.67675 6.01413C4.37365 6.13055 4.04946 6.18197 3.72521 6.16504L2.60739 6.10834C2.4396 6.10051 2.27252 6.14456 2.13065 6.23458C1.98852 6.32477 1.8777 6.45668 1.81334 6.61228C1.74898 6.76788 1.73423 6.93957 1.77113 7.10388C1.80802 7.26819 1.89474 7.41707 2.01943 7.53019L2.85143 8.28558L2.85222 8.28629C3.09253 8.50359 3.28464 8.76883 3.41617 9.06492C3.54784 9.36133 3.61587 9.68207 3.61587 10.0064C3.61587 10.3308 3.54784 10.6515 3.41617 10.9479C3.28449 11.2443 3.09211 11.5098 2.85143 11.7273L2.01882 12.4792C1.89377 12.5924 1.80674 12.7417 1.76981 12.9063C1.73288 13.071 1.74783 13.2431 1.81259 13.3989C1.87735 13.5548 1.98875 13.6867 2.13148 13.7767C2.2742 13.8667 2.44125 13.9102 2.6097 13.9015L3.73078 13.8446C4.05453 13.828 4.3787 13.8795 4.68128 13.9959C4.98403 14.1123 5.25897 14.2909 5.48831 14.5203C5.71765 14.7497 5.89628 15.0246 6.01265 15.3274C6.12902 15.6302 6.18054 15.954 6.16388 16.2779L6.10646 17.3944L6.10638 17.3962C6.09906 17.5637 6.1434 17.7295 6.2334 17.871C6.32371 18.013 6.4556 18.1237 6.61108 18.188C6.76656 18.2523 6.93807 18.267 7.10223 18.2303C7.2663 18.1935 7.41507 18.1071 7.52828 17.9827L8.28294 17.1513L8.28397 17.1501C8.5011 16.91 8.76614 16.7179 9.06202 16.5864C9.35786 16.4549 9.67795 16.3869 10.0017 16.3866C10.3254 16.3869 10.6455 16.4549 10.9413 16.5864C11.2372 16.7179 11.5023 16.91 11.7194 17.1501L11.7204 17.1513L12.4751 17.9827C12.5883 18.1071 12.7371 18.1935 12.9011 18.2303C13.0653 18.267 13.2368 18.2523 13.3923 18.188C13.5478 18.1237 13.6797 18.013 13.77 17.871C13.86 17.7295 13.9043 17.5637 13.897 17.3962L13.8969 17.3944L13.8395 16.2779C13.8228 15.954 13.8744 15.6302 13.9907 15.3274C14.1071 15.0246 14.2857 14.7497 14.5151 14.5203C14.7444 14.2909 15.0193 14.1123 15.3221 13.9959C15.6247 13.8795 15.9488 13.828 16.2726 13.8446L17.3937 13.9015C17.5621 13.9102 17.7292 13.8667 17.8719 13.7767C18.0146 13.6867 18.126 13.5548 18.1908 13.3989C18.2555 13.2431 18.2705 13.071 18.2336 12.9063C18.1966 12.7417 18.1096 12.5924 17.9845 12.4792L17.1519 11.7273C16.9113 11.5098 16.7189 11.2443 16.5872 10.9479C16.4555 10.6515 16.3875 10.3308 16.3875 10.0064C16.3875 9.68207 16.4555 9.36133 16.5872 9.06492C16.7187 8.76883 16.9108 8.50359 17.1511 8.28629L17.1519 8.28558L17.9839 7.53019C18.1086 7.41707 18.1953 7.26819 18.2322 7.10388C18.2691 6.93957 18.2544 6.76788 18.19 6.61228C18.1257 6.45668 18.0148 6.32477 17.8727 6.23458C17.7309 6.14456 17.5638 6.10051 17.396 6.10834L16.2782 6.16504C15.9539 6.18197 15.6297 6.13055 15.3266 6.01413C15.0232 5.8976 14.7478 5.71855 14.5181 5.48862C14.2884 5.25869 14.1097 4.98302 13.9935 4.67951C13.8776 4.37675 13.8264 4.05304 13.8434 3.72932L13.897 2.60996C13.9048 2.44189 13.8606 2.2755 13.7704 2.13347C13.6802 1.99132 13.5483 1.8805 13.3927 1.81611C13.2372 1.75172 13.0656 1.73689 12.9014 1.77364C12.7374 1.81034 12.5881 1.89721 12.4749 2.02149L11.725 2.84972L11.7242 2.85059C11.5072 3.09131 11.242 3.28381 10.9459 3.41562C10.6494 3.54759 10.3285 3.61579 10.004 3.61579H9.99937Z"/>
</svg>

<svg xmlns="http://www.w3.org/2000/svg" width="20" height="20"><path d="M10 6.25a3.75 3.75 0 1 0 0 7.5 3.75 3.75 0 1 0 0-7.5zM7.75 10a2.25 2.25 0 1 1 4.5 0 2.25 2.25 0 1 1-4.5 0zm2.253 7.887c-.114 0-.228.024-.332.07a.82.82 0 0 0-.275.199l-.001.002-.756.833a2.32 2.32 0 0 1-4.031-1.665v-.004l.058-1.121c.006-.114-.012-.229-.053-.335a.82.82 0 0 0-.47-.47c-.107-.041-.221-.059-.335-.053l-1.12.057c-.478.025-.952-.099-1.356-.354s-.721-.629-.904-1.071a2.32 2.32 0 0 1 .585-2.607l.834-.753a.82.82 0 0 0 0-1.216l-.001-.001-.833-.756A2.32 2.32 0 0 1 .429 6.04c.182-.441.497-.815.9-1.071s.875-.381 1.352-.358h.002l1.122.057a.82.82 0 0 0 .336-.053c.107-.041.204-.104.285-.185s.144-.178.185-.285a.82.82 0 0 0 .053-.336v-.004L4.61 2.684A2.32 2.32 0 0 1 6.037.43a2.32 2.32 0 0 1 2.601.582l.001.001.754.832a.81.81 0 0 0 .275.199.83.83 0 0 0 .332.071h.005a.81.81 0 0 0 .332-.071c.105-.047.198-.114.275-.199l.754-.832.001-.001a2.32 2.32 0 0 1 2.6-.582 2.32 2.32 0 0 1 1.429 2.251l-.054 1.121v.004a.82.82 0 0 0 .053.336c.041.107.104.204.185.285s.178.144.285.185a.82.82 0 0 0 .336.053l1.122-.057h.002c.477-.023.949.102 1.352.358s.717.63.9 1.071a2.32 2.32 0 0 1-.584 2.603l-.833.756-.001.001a.82.82 0 0 0 0 1.216l.834.753a2.32 2.32 0 0 1 .585 2.607c-.183.441-.499.816-.904 1.071a2.32 2.32 0 0 1-1.356.354l-1.12-.057c-.114-.006-.228.012-.335.053a.82.82 0 0 0-.285.185c-.081.081-.144.178-.185.285s-.059.221-.053.335l.058 1.121v.004a2.32 2.32 0 0 1-4.031 1.666l-.756-.833-.001-.002a.82.82 0 0 0-.275-.199c-.104-.047-.218-.07-.332-.07h.003zM9.999 3.616c-.325 0-.645-.068-.942-.2s-.561-.324-.778-.565l-.001-.001-.75-.828a.82.82 0 0 0-1.422.589L6.16 3.73a2.32 2.32 0 0 1-.15.95c-.116.304-.295.579-.525.809s-.505.409-.809.526a2.31 2.31 0 0 1-.952.151l-1.118-.057a.82.82 0 0 0-.477.126c-.142.09-.253.222-.317.378a.82.82 0 0 0 .206.918l.832.755h.001a2.32 2.32 0 0 1 0 3.441l-.833.752a.82.82 0 0 0-.249.427c-.037.165-.022.337.043.493s.176.288.319.378.31.133.478.125l1.121-.057a2.32 2.32 0 0 1 .95.151 2.31 2.31 0 0 1 1.331 1.331 2.32 2.32 0 0 1 .151.95l-.057 1.117v.002a.82.82 0 0 0 1.422.587l.755-.831.001-.001a2.32 2.32 0 0 1 3.436 0l.001.001.755.831a.82.82 0 0 0 1.422-.587v-.002l-.057-1.117a2.32 2.32 0 0 1 .151-.95 2.31 2.31 0 0 1 1.331-1.331 2.32 2.32 0 0 1 .95-.151l1.121.057c.168.009.335-.035.478-.125a.82.82 0 0 0 .113-1.297l-.833-.752a2.32 2.32 0 0 1 0-3.441h.001l.832-.755c.125-.113.211-.262.248-.426a.82.82 0 0 0-.042-.492c-.064-.156-.175-.288-.317-.378a.82.82 0 0 0-.477-.126l-1.118.057a2.31 2.31 0 0 1-1.76-.677c-.229-.23-.408-.506-.525-.809a2.32 2.32 0 0 1-.15-.95l.054-1.119a.82.82 0 0 0-.127-.476c-.09-.142-.222-.253-.378-.317a.82.82 0 0 0-.918.205l-.75.828-.001.001c-.217.241-.482.433-.778.565s-.617.2-.942.2h-.005z"/></svg>
